Yaru++/apps/scalable/spotify.svg

<svg height="256" width="256" xmlns="http://www.w3.org/2000/svg" xmlns:xlink="http://www.w3.org/1999/xlink">
  <filter id="filter11191" color-interpolation-filters="sRGB" height="1.024" width="1.024" x="-.01" y="-.01">
    <feGaussianBlur stdDeviation="1.12"/>
  </filter>
  <filter id="filter11210" color-interpolation-filters="sRGB" height="1.096" width="1.096" x="-.05" y="-.05">
    <feGaussianBlur stdDeviation="4.48"/>
  </filter>
  <circle cx="128.752" cy="127.248" filter="url(#filter11210)" opacity=".1" r="112"/>
  <circle cx="128.752" cy="125.248" filter="url(#filter11191)" opacity=".1" r="112"/>
  <circle cx="128.752" cy="123.248" opacity=".1" r="114"/>
  <circle cx="128.752" cy="123.248" fill="#f6f5f4" r="112"/>
  <path d="m16.751953 123.24805c.219543 2.63999.266428 5.98571.402344 8.91797a112 112 0 0 0 1.226562 10.11914 112 112 0 0 0 2.453125 10.92187 112 112 0 0 0 3.529297 10.625 112 112 0 0 0 4.574219 10.21875 112 112 0 0 0 5.570312 9.71094 112 112 0 0 0 6.511719 9.10742 112 112 0 0 0 7.388672 8.41016 112 112 0 0 0 8.191406 7.63086 112 112 0 0 0 8.91211 6.77539 112 112 0 0 0 9.544922 5.85156 112 112 0 0 0 10.080078 4.86914 112 112 0 0 0 10.517578 3.83984 112 112 0 0 0 10.847653 2.76953 112 112 0 0 0 11.06836 1.67188 112 112 0 0 0 11.05664.55469c1.00274-.00122 2.05955-.08622 3.07227-.09961a112 112 0 0 0 4.97461-.17578 112 112 0 0 0 11.11523-1.34766 112 112 0 0 0 10.92188-2.45312 112 112 0 0 0 10.625-3.5293 112 112 0 0 0 10.21875-4.57422 112 112 0 0 0 9.71093-5.57031 112 112 0 0 0 9.10743-6.51172 112 112 0 0 0 8.41015-7.38867 112 112 0 0 0 7.63086-8.19141 112 112 0 0 0 6.77539-8.91211 112 112 0 0 0 5.85157-9.54492 112 112 0 0 0 4.86914-10.08008 112 112 0 0 0 3.83984-10.51758 112 112 0 0 0 2.76953-10.84765 112 112 0 0 0 1.63867-10.83008c-.1976-4.0827-.28991-8.00416-.00586-11.41992z" fill="#fff" opacity=".1"/>
  <path d="m303.78617 39.825773c-61.85421 0-111.99933 50.14499-111.99933 112.000637 0 61.85837 50.14512 111.99936 111.99933 111.99936 61.8609 0 112.00067-50.14099 112.00067-111.99936 0-61.851637-50.13977-111.995286-112.00201-111.995286zm51.36217 161.537097c-2.00613 3.29009-6.31261 4.3333-9.60265 2.3138-26.2963-16.06279-59.40006-19.70064-98.38577-10.79321-3.7568.85597-7.50157-1.49794-8.35752-5.25621-.85996-3.75822 1.48453-7.50306 5.2507-8.35905 42.66361-9.74732 79.25936-5.55039 108.78151 12.49177 3.29004 2.01957 4.33323 6.31276 2.31373 9.6029zm13.70853-30.49652c-2.52772 4.10864-7.90413 5.40595-12.01001 2.87817-30.10526-18.50495-75.99606-23.86409-111.6048-13.05484-4.6181 1.39498-9.49566-1.20769-10.89727-5.81788-1.39092-4.61822 1.21303-9.48653 5.82311-10.89084 40.67488-12.34199 91.24128-6.36359 125.81351 14.88179 4.10588 2.52778 5.40318 7.90434 2.87546 12.00493zm1.17693-31.75642c-36.0969-21.44059-95.65209-23.412-130.11599-12.95184-5.53424 1.6785-11.38677-1.44576-13.0639-6.98015-1.67712-5.53704 1.44441-11.3857 6.98266-13.06821 39.56214-12.010267 105.32963-9.689797 146.88855 14.98214 4.98856 2.95442 6.62019 9.38353 3.66451 14.35481-2.9423 4.97801-9.38867 6.61904-14.3505 3.66325z" fill="#1ed760" transform="translate(-175.03484 -28.577778)"/>
  <path d="m128.752 11.248006a112 112 0 0 0 -112.000001 111.999994 112 112 0 0 0 .04102 1.16992 112 112 0 0 1 111.958981-111.169914 112 112 0 0 1 111.95898 110.830074 112 112 0 0 0 .041-.83008 112 112 0 0 0 -112-111.999994z" fill="#fff" opacity=".3"/>
  <path d="m128.752 235.248a112 112 0 0 1 -112.000001-112 112 112 0 0 1 .04102-1.16992 112 112 0 0 0 111.958981 111.16992 112 112 0 0 0 111.95898-110.83008 112 112 0 0 1 .041.83008 112 112 0 0 1 -112 112z" opacity=".2"/>
</svg>

<svg xmlns="http://www.w3.org/2000/svg" xmlns:osb="http://www.openswatchbook.org/uri/2009/osb" xmlns:xlink="http://www.w3.org/1999/xlink" width="256" height="256" version="1.1">
 <defs>
  <linearGradient id="linearGradient5606" osb:paint="solid">
   <stop id="stop5608" offset="0" style="stop-color:#000000"/>
  </linearGradient>
  <linearGradient id="linearGradient4526" osb:paint="solid">
   <stop id="stop4528" offset="0" style="stop-color:#ffffff"/>
  </linearGradient>
  <linearGradient id="linearGradient3600-4" osb:paint="gradient">
   <stop id="stop3602-7" offset="0" style="stop-color:#f4f4f4"/>
   <stop id="stop3604-6" offset="1" style="stop-color:#dbdbdb"/>
  </linearGradient>
  <clipPath id="clipPath1094" clipPathUnits="userSpaceOnUse">
   <path style="fill:url(#linearGradient1098)" d="M 188.96875,43.999998 C 261.6174,43.999998 272,54.356613 272,126.9375 v 58.125 C 272,257.64309 261.6174,268 188.96875,268 h -73.9375 C 42.3826,268 32,257.64309 32,185.0625 v -58.125 C 32,54.356613 42.3826,43.999998 115.03125,43.999998 Z"/>
  </clipPath>
  <clipPath id="clipPath1100" clipPathUnits="userSpaceOnUse">
   <path style="fill:url(#linearGradient1104)" d="M 188.96875,44 C 261.6174,44 272,54.356615 272,126.9375 v 58.125 C 272,257.64309 261.6174,268 188.96875,268 h -73.9375 C 42.3826,268 32,257.64309 32,185.0625 v -58.125 C 32,54.356615 42.3826,44 115.03125,44 Z"/>
  </clipPath>
  <filter style="color-interpolation-filters:sRGB" id="filter11191" width="1.024" height="1.024" x="-.01" y="-.01">
   <feGaussianBlur id="feGaussianBlur11193" stdDeviation="1.12"/>
  </filter>
  <filter style="color-interpolation-filters:sRGB" id="filter11210" width="1.096" height="1.096" x="-.05" y="-.05">
   <feGaussianBlur id="feGaussianBlur11212" stdDeviation="4.48"/>
  </filter>
  <linearGradient id="linearGradient1490" x1="33.076" x2="91.624" y1="210.425" y2="262.805" gradientTransform="matrix(2.1947377,0,0,2.1923444,-10.836741,-394.1216)" gradientUnits="userSpaceOnUse" xlink:href="#linearGradient1488"/>
  <linearGradient id="linearGradient1488">
   <stop style="stop-color:#ff8b00" id="stop1484" offset="0"/>
   <stop style="stop-color:#ffda2c" id="stop1486" offset="1"/>
  </linearGradient>
  <filter id="filter4460" width="1.026" height="1.023" x="-.01" y="-.01" style="color-interpolation-filters:sRGB">
   <feGaussianBlur id="feGaussianBlur7" stdDeviation="1.133"/>
  </filter>
  <linearGradient id="linearGradient4413" x1="256" x2="256" y1="138" y2="375" gradientTransform="matrix(0.43877818,0,0,0.43877818,-24.464695,-1.3582757)" gradientUnits="userSpaceOnUse">
   <stop style="stop-color:#000000;stop-opacity:0" id="stop10" offset="0"/>
   <stop style="stop-color:#000000" id="stop12" offset=".505"/>
   <stop style="stop-color:#000000;stop-opacity:0" id="stop14" offset="1"/>
  </linearGradient>
  <linearGradient id="w" x1="123.641" x2="146.527" y1="131.028" y2="174.708" gradientTransform="matrix(1.4482347,0,0,1.2146937,246.49349,46.727269)" gradientUnits="userSpaceOnUse">
   <stop id="stop912" offset="0" stop-color="#eff7fc"/>
   <stop id="stop914" offset="1" stop-color="#fff"/>
  </linearGradient>
 </defs>
 <circle style="opacity:0.1;filter:url(#filter11210)" cx="128.752" cy="127.248" r="112"/>
 <circle style="opacity:0.1;filter:url(#filter11191)" cx="128.752" cy="125.248" r="112"/>
 <circle style="opacity:0.1" cx="128.752" cy="123.248" r="114"/>
 <circle style="fill:#f6f5f4" cx="128.752" cy="123.248" r="112"/>
 <path style="opacity:0.1;fill:#ffffff" d="M 16.751953 123.24805 C 16.971496 125.88804 17.018381 129.23376 17.154297 132.16602 A 112 112 0 0 0 18.380859 142.28516 A 112 112 0 0 0 20.833984 153.20703 A 112 112 0 0 0 24.363281 163.83203 A 112 112 0 0 0 28.9375 174.05078 A 112 112 0 0 0 34.507812 183.76172 A 112 112 0 0 0 41.019531 192.86914 A 112 112 0 0 0 48.408203 201.2793 A 112 112 0 0 0 56.599609 208.91016 A 112 112 0 0 0 65.511719 215.68555 A 112 112 0 0 0 75.056641 221.53711 A 112 112 0 0 0 85.136719 226.40625 A 112 112 0 0 0 95.654297 230.24609 A 112 112 0 0 0 106.50195 233.01562 A 112 112 0 0 0 117.57031 234.6875 A 112 112 0 0 0 128.62695 235.24219 C 129.62969 235.24097 130.6865 235.15597 131.69922 235.14258 A 112 112 0 0 0 136.67383 234.9668 A 112 112 0 0 0 147.78906 233.61914 A 112 112 0 0 0 158.71094 231.16602 A 112 112 0 0 0 169.33594 227.63672 A 112 112 0 0 0 179.55469 223.0625 A 112 112 0 0 0 189.26562 217.49219 A 112 112 0 0 0 198.37305 210.98047 A 112 112 0 0 0 206.7832 203.5918 A 112 112 0 0 0 214.41406 195.40039 A 112 112 0 0 0 221.18945 186.48828 A 112 112 0 0 0 227.04102 176.94336 A 112 112 0 0 0 231.91016 166.86328 A 112 112 0 0 0 235.75 156.3457 A 112 112 0 0 0 238.51953 145.49805 A 112 112 0 0 0 240.1582 134.66797 C 239.9606 130.58527 239.86829 126.66381 240.15234 123.24805 L 16.751953 123.24805 z"/>
 <g style="enable-background:new" id="layer1-3" transform="translate(-175.03484,-28.577778)">
  <g id="layer9-6">
   <path style="fill:#1ed760" d="m 303.78617,39.825773 c -61.85421,0 -111.99933,50.14499 -111.99933,112.000637 0,61.85837 50.14512,111.99936 111.99933,111.99936 61.8609,0 112.00067,-50.14099 112.00067,-111.99936 0,-61.851637 -50.13977,-111.995286 -112.00201,-111.995286 z m 51.36217,161.537097 c -2.00613,3.29009 -6.31261,4.3333 -9.60265,2.3138 -26.2963,-16.06279 -59.40006,-19.70064 -98.38577,-10.79321 -3.7568,0.85597 -7.50157,-1.49794 -8.35752,-5.25621 -0.85996,-3.75822 1.48453,-7.50306 5.2507,-8.35905 42.66361,-9.74732 79.25936,-5.55039 108.78151,12.49177 3.29004,2.01957 4.33323,6.31276 2.31373,9.6029 z m 13.70853,-30.49652 c -2.52772,4.10864 -7.90413,5.40595 -12.01001,2.87817 -30.10526,-18.50495 -75.99606,-23.86409 -111.6048,-13.05484 -4.6181,1.39498 -9.49566,-1.20769 -10.89727,-5.81788 -1.39092,-4.61822 1.21303,-9.48653 5.82311,-10.89084 40.67488,-12.34199 91.24128,-6.36359 125.81351,14.88179 4.10588,2.52778 5.40318,7.90434 2.87546,12.00493 z m 1.17693,-31.75642 c -36.0969,-21.44059 -95.65209,-23.412 -130.11599,-12.95184 -5.53424,1.6785 -11.38677,-1.44576 -13.0639,-6.98015 -1.67712,-5.53704 1.44441,-11.3857 6.98266,-13.06821 39.56214,-12.010267 105.32963,-9.689797 146.88855,14.98214 4.98856,2.95442 6.62019,9.38353 3.66451,14.35481 -2.9423,4.97801 -9.38867,6.61904 -14.3505,3.66325 z"/>
  </g>
 </g>
 <path style="opacity:0.3;fill:#ffffff" d="M 128.752,11.248006 A 112,112 0 0 0 16.751999,123.248 112,112 0 0 0 16.793019,124.41792 112,112 0 0 1 128.752,13.248006 112,112 0 0 1 240.71098,124.07808 a 112,112 0 0 0 0.041,-0.83008 112,112 0 0 0 -112,-111.999994 z"/>
 <path style="opacity:0.2" d="m 128.752,235.248 a 112,112 0 0 1 -112.000001,-112 112,112 0 0 1 0.04102,-1.16992 A 112,112 0 0 0 128.752,233.248 112,112 0 0 0 240.71098,122.41792 a 112,112 0 0 1 0.041,0.83008 112,112 0 0 1 -112,112 z"/>
</svg>
